X: 3
M:2/4
L:1/16
K:G
uG2|DGBG dGBG|GFGA BABG|ABAF GFED|
|:ud2|gbeg dgBd|dBge dBAB|GBdB edcB|A^GAB .A2"4"DC|


